!!!COM: Janáček, Leoš [Leo Eugen]
!!!OTL: T124_Jan-w15p21m1-14
**kern	**kern	**dynam	**kern	**text	**text	**text
!!pagebreak:original
*clefF4	*clefG2	*	*clefG2	*	*	*
*k[f#c#]	*k[f#c#]	*	*k[f#c#]	*	*	*
*D:	*D:	*	*D:	*	*	*
*M2/4	*M2/4	*	*M2/4	*	*	*
=1	=1	=1	=1	=1	=1	=1
!	!	!	!LO:TX:t=[quarter]=80	!	!	!
!	!	!	!LO:TX:t=[quarter]=70	!	!	!
!	!LO:TX:b:t=P	!	!LO:TX:a:B:t=Andante q	!	!	!
16BB	8r	pp	2r	.	.	.
16r	.	.	.	.	.	.
4F# 4B 4d	(16.bLL	.	.	.	.	.
.	32cc#JJk	.	.	.	.	.
.	16ddLL	.	.	.	.	.
.	16ff#	.	.	.	.	.
16F# 16B 16d	16cc#	.	.	.	.	.
16r	16bJJ	.	.	.	.	.
=2	=2	=2	=2	=2	=2	=2
8r	4.f#	.	2r	.	.	.
4F# 4B 4d	.	.	.	.	.	.
16F# 16B 16d	16f#)	.	.	.	.	.
16r	16r	.	.	.	.	.
=3!|:	=3!|:	=3!|:	=3!|:	=3!|:	=3!|:	=3!|:
8r	[4.f#	.	6dd	Těž-	1. Mir	2. Seid'-
4B 4d	.	.	.	.	.	.
.	.	.	3cc#	-ko	ist	-ne
16B 16d	16f#^]	.	.	.	.	.
16r	16r	.	.	.	.	.
=4	=4	=4	=4	=4	=4	=4
8r	[4.f#	.	6b	je	ban-	Schnü-
4B 4d	.	.	.	.	.	.
.	.	.	3a	mi,	-ge,	-re
16B 16d	16f#]	.	.	.	.	.
16r	16r	.	.	.	.	.
=5	=5	=5	=5	=5	=5	=5
8r	[4.f#	.	3dd	těž-	ban-	könn-
4B 4d	.	.	.	.	.	.
.	.	.	6ee	-ko	-ge,	-te
16B 16d	16f#]	.	.	.	.	.
16r	16r	.	.	.	.	.
=6	=6	=6	=6	=6	=6	=6
*	*^	*	*	*	*	*
8r	8r	4.f#	sf	6ff#	na	fühl'	ich
4F# 4B 4d	16.bLL	.	.	.	.	.	.
.	.	.	.	(3dd	mo-	im	noch
.	32cc#JJk	.	.	.	.	.	.
.	16ddLL	.	.	.	.	.	.
.	16ff#	.	.	.	.	.	.
*^	*	*	*	*	*	*	*
16F# 16B 16d	[8B	16cc#	16f#	.	.	.	.	.
16r	.	16bJJ	16r	.	.	.	.	.
*	*	*v	*v	*	*	*	*	*
.	.	.	.	8qcc#/	.	.	.
!!linebreak:original
=7	=7	=7	=7	=7	=7	=7	=7
16ryy@	16B]	16f#	.	6b)	-jim	Her-	e-
16ryy@	16r	16r	.	.	.	.	.
*v	*v	*	*	*	*	*	*
4AA 4G	4c# 4f# 4a	.	.	.	.	.
.	.	.	3cc#	sr-	-zen	-her
16AA 16G	16c# 16f# 16a	.	.	.	.	.
16r	16r	.	.	.	.	.
=8	=8	=8	=8	=8	=8	=8
*^	*	*	*	*	*	*
8ryy	16DD	8r	.	3a	-deč-	Schwe-	tren-
.	16r	.	.	.	.	.	.
4D 4F# 4A	8ryy	4d 4f# 4a	>	.	.	.	.
.	4ryy	.	.	.	.	.	.
.	.	.	.	6a	-ku,	-re,	-nen,
16D 16F# 16A	.	16d 16f# 16a	.	.	.	.	.
16r	.	16r	]	.	.	.	.
*v	*v	*	*	*	*	*	*
=9	=9	=9	=9	=9	=9	=9
!	!LO:TX:b:t=P	!	!	!	!	!
16GG	(8g	mf	6g	jak	als	dich,
16r	.	.	.	.	.	.
4G 4B	4.f#)	.	.	.	.	.
.	.	.	3f#	by	ob	mein
16G 16B	.	.	.	.	.	.
16r	.	.	.	.	.	.
.	32qqb/LLL	.	.	.	.	.
.	32qqg/	.	.	.	.	.
.	32qqf#/JJJ	.	.	.	.	.
=10	=10	=10	=10	=10	=10	=10
.	16qqe/LL	.	.	.	.	.
.	16qqf#/JJ	.	.	.	.	.
8r	8e	.	6e	mi	es	Lieb-
4G 4B	4.d	.	.	.	.	.
.	.	.	3d	ho	be-	-ster,
16G 16B	.	.	.	.	.	.
16r	.	.	.	.	.	.
.	8qB/	.	.	.	.	.
=11	=11	=11	=11	=11	=11	=11
8r	4.g	.	3g	zva-	-engt	werd'
4G 4B	.	.	.	.	.	.
.	.	.	6f#	-zał	von	ich
16G 16B	8a	.	.	.	.	.
16r	.	.	.	.	.	.
=12	=12	=12	=12	=12	=12	=12
*	*^	*	*	*	*	*
16E	8r	4.b	.	(6b	hed-	seid'-	nie
16r	.	.	.	.	.	.	.
!	!LO:TX:b:t=P	!	!	!	!	!	!
4B 4e 4g	16.eeLL	.	.	.	.	.	.
.	.	.	.	3g	-bav-	-nen	ver-
.	32ff#JJk	.	.	.	.	.	.
.	16ggLL	.	.	.	.	.	.
.	16bb	.	.	.	.	.	.
*^	*	*	*	*	*	*	*
16B 16g	[8e	16ff#	16b	.	.	.	.	.
16r	.	16eeJJ	16r	.	.	.	.	.
*	*	*v	*v	*	*	*	*	*
.	.	.	.	8qf#/	.	.	.
=13	=13	=13	=13	=13	=13	=13	=13
16ryy@	16e]	16b	.	6e	-nu	Schnü-	-ges-
*v	*v	*	*	*	*	*	*
.	16r	.	.	.	.	.
!	!LO:TX:b:t=P	!	!	!	!	!
4AA	4G 4c# 4f#	.	.	.	.	.
.	.	.	3f#	šňu-	-ren	-sen
16AAA	16G 16c# 16f#	.	.	.	.	.
16r	16r	.	.	.	.	.
=14	=14	=14	=14	=14	=14	=14
!	!LO:TX:b:t=P	!	!	!	!	!
16BBB	8r	.	3d	-reč-	wä-	kön-
16r	.	.	.	.	.	.
4BB	4F# 4B 4d 4f#	.	.	.	.	.
.	.	.	6d	-ku.	-re.	-nen.
16BB	16F# 16B 16d 16f#	.	.	.	.	.
16r	16r	.	.	.	.	.
=:|!	=:|!	=:|!	=:|!	=:|!	=:|!	=:|!
*-	*-	*-	*-	*-	*-	*-
!!!system-decoration: s1[({(s2,s3)})]
